img/scene_2_wave_4.svg

<svg width="2179" height="674" viewBox="0 0 2179 674" fill="none" xmlns="http://www.w3.org/2000/svg">
<g clip-path="url(#clip0)">
<path d="M102.315 230.75C161.25 232.981 210.689 212.972 258.515 188.384C302.589 165.712 344.289 140.232 389.307 118.662C443.914 92.4863 504.332 72.4775 569.604 73.5927C604.247 74.1832 639.939 78.4473 671.381 90.3345C697.523 100.201 720.229 114.083 740.902 129.853C784.557 163.101 823.751 203.63 880.89 223.521C939.078 243.779 1014.08 248.843 1074.32 230.698C1131.18 213.641 1173.56 179.305 1216.78 147.199C1268.86 108.52 1327.61 73.2254 1397.67 57.1528C1472.61 39.9649 1548.14 47.9684 1614.18 80.6253C1674.23 110.265 1722.78 150.728 1776.84 186.219C1828.65 220.267 1890.13 250.969 1956.2 264.942C2011.82 276.672 2077.71 272.985 2126.02 246.639C2145.97 235.822 2163.84 221.534 2178.78 204.443V674H0V200.442C31.0652 218.873 66.225 229.288 102.315 230.75V230.75Z" fill="#65D5F5"/>
<path d="M89.7614 264.706C137.476 275.964 187.05 276.859 235.14 267.33C284.29 257.463 324.416 235.972 362.994 210.977C410.898 179.947 459.248 143.341 521.936 132.044C581.855 121.272 638.037 135.141 687.712 161.592C735.223 186.888 776.017 218.889 823.003 244.71C876.128 273.916 939.917 293.899 1005.1 297.769C1038.95 299.777 1074.62 299.081 1107.49 291.852C1135.8 285.444 1163.14 275.347 1188.82 261.819C1241.89 234.122 1286.2 198.106 1333.66 165.134C1361.51 145.781 1390.67 125.891 1426.69 116.588C1460.98 107.925 1496.83 107.377 1531.37 114.987C1602.3 130.22 1662.55 166.013 1722.89 197.187C1843.16 259.208 2070.95 355.434 2178.67 248.108V673.999H0V228.217C27.8751 244.908 58.1489 257.214 89.7614 264.706V264.706Z" fill="#0AC0EF"/>
<g style="mix-blend-mode:multiply" opacity="0.5">
<path d="M129.428 310.234C199.251 314.419 267.828 299.619 328.443 272.959C359.079 259.333 388.483 243.091 416.329 224.413C440.95 208.065 465.794 190.627 495.465 179.974C567.899 153.969 639.952 177.809 695.503 216.855C743.329 250.483 793.594 280.778 854.078 299.396C915.729 318.382 980.791 324.391 1046.76 322.449C1110.4 320.573 1177.84 314.209 1233.6 288.336C1259.28 276.449 1282.13 261.216 1299.45 242.152C1316.5 223.35 1329.62 202.79 1344.73 183.004C1360.38 162.523 1378.43 141.517 1404.58 128.292C1436.81 111.97 1473.71 108.611 1510.71 116.129C1582.3 130.706 1638.78 171.97 1695.56 206.661C1750 239.96 1806.17 272.814 1870.43 293.82C1965.06 324.732 2081.39 350.684 2178.78 320.061V674H0V276.449C40.5606 295.954 84.5107 307.427 129.428 310.234V310.234Z" fill="#09B0EC"/>
</g>
<path d="M2179 397.826L2133.31 401.33C1982.6 403.613 1809.93 315.679 1806.27 313.803C1776.28 295.023 1746.41 275.998 1716.66 256.728C1668.36 225.449 1620.51 185.878 1565.96 169.766C1527.82 158.469 1486.3 156.002 1449.63 171.668C1422.88 183.096 1404.24 203.223 1387.15 222.248C1370.06 241.273 1353.57 259.497 1332.15 275.491C1308.67 293.033 1281.32 307.269 1252.13 318.46C1132.77 364.303 982.968 354.647 864.27 313.212C799.077 290.448 739.787 258.762 678.005 231.13C645.802 216.698 611.54 206.293 574.051 205.454C541.9 204.745 510.878 212.735 482.991 224.662C430.692 247.032 394.567 285.016 344.617 309.945C297.198 333.562 241.712 347.273 185.557 349.49C132.366 351.59 80.6187 341.526 36.02 319.051C24.3719 313.199 11.9892 306.534 -0.0131226 299.108V674H2178.78V664.907C2178.78 615.758 2173.81 398.207 2179 397.826Z" fill="#0AC0EF"/>
<path d="M2176.64 473.322C2132.75 467.654 2084.27 450.597 2062.83 444.457C1966.63 417.009 1871.96 381.478 1779.67 343.009C1718.44 317.45 1662.93 278.968 1596.76 266.543C1547.42 257.322 1496.54 261.029 1449.05 277.302C1399.21 294.358 1354.33 323.722 1317.41 361.141C1185.33 495.049 952.864 421.574 810.647 346.132C753.075 315.587 705.709 293.4 638.811 293.269C571.65 293.125 476.917 305.629 418.309 343.127C232.517 461.907 63.3301 411.773 0 385.204V428.502C208.328 508.695 420.238 389.823 420.238 389.823C658.303 287.024 849.172 393.142 849.172 393.142C923.547 436.256 1006.49 465.174 1092.46 472.01C1143.62 476.09 1204.34 480.184 1253.34 461.631C1304.05 442.436 1339.18 390.492 1384.11 361.325C1454.18 315.85 1556.63 286.394 1639.58 308.843C1711.57 328.314 1778.39 376.414 1848.14 404.046C1922.75 433.619 1999.42 457.84 2076.87 478.832C2082.12 480.236 2131.35 490.641 2176.89 500.52C2176.73 491.113 2176.68 482.021 2176.64 473.322Z" fill="#0AADEF"/>
<g style="mix-blend-mode:multiply" opacity="0.5">
<path d="M45.412 669.971L4.47299 666.849L0 663.713V588.808C97.3825 619.484 213.72 593.532 308.347 562.567C372.622 541.574 428.777 508.773 483.201 475.408C539.998 440.665 596.481 399.401 668.049 384.876C705.066 377.332 741.965 380.704 774.194 397.026C800.337 410.264 818.399 431.27 834.048 451.751C849.133 471.432 862.289 492.097 879.329 510.885C896.617 529.963 919.494 545.196 945.164 557.083C1000.94 582.904 1068.37 589.28 1132.02 591.196C1197.99 593.138 1263.03 587.129 1324.7 568.143C1385.17 549.525 1435.45 519.217 1483.26 485.602C1538.83 446.543 1610.87 422.716 1683.31 448.721C1712.98 459.374 1737.83 476.812 1762.44 493.16C1790.28 511.837 1819.69 528.079 1850.32 541.706C1910.94 568.366 1979.5 583.166 2049.34 578.981C2094.27 576.134 2138.22 564.612 2178.78 545.051V567.723C2166.77 575.137 2154.38 581.815 2142.74 587.667C2098.07 610.129 2046.36 620.205 1993.21 618.106C1937.05 615.876 1881.55 602.152 1834.13 578.548C1784.2 553.698 1748.07 515.674 1695.76 493.265C1667.89 481.338 1636.86 473.348 1604.71 474.056C1567.22 474.896 1532.95 485.34 1500.76 499.733C1438.98 527.365 1379.67 559.051 1314.49 581.802C1195.8 623.236 1046.01 632.893 926.643 587.05C897.509 575.858 870.16 561.622 846.627 544.08C825.22 528.086 808.587 509.691 791.64 490.837C774.692 471.983 755.843 451.751 729.11 440.31C692.382 424.644 650.905 427.098 612.76 438.408C558.231 454.559 510.379 494.091 462.082 525.37C432.349 544.614 402.477 563.639 372.465 582.445C368.805 584.268 196.142 672.254 45.412 669.971Z" fill="#09B0EC"/>
</g>
<path d="M394.423 87.6447C386.815 86.3326 378.197 86.9624 372.556 92.2368C366.916 97.5113 366.785 108.532 373.737 111.918C363.952 112.456 356.619 123.332 358.547 132.91C360.475 142.488 370.064 149.547 379.863 149.967C389.661 150.387 399.132 144.955 405.14 137.214C401.703 137.07 399.526 142.187 402.018 144.574C416.263 148.511 432.712 137.935 435.139 123.359C447.994 134.275 471.224 127.518 476.209 111.393C491.359 116.562 509.697 109.687 517.712 95.8318C541.323 106.394 568.515 97.7081 594.356 96.6978C619.607 95.7006 644.713 102.353 667.813 112.718C712.962 133.055 750.307 167.037 791.286 194.852C832.264 222.668 880.995 245.13 929.909 237.402C897.853 232.061 866.972 221.174 838.652 205.231C829.05 199.812 819.553 193.645 812.916 184.841C808.81 179.383 805.924 173.098 801.806 167.653C797.963 162.64 793.154 158.449 787.663 155.328C782.172 152.206 776.111 150.218 769.839 149.482C775.466 150.111 765.982 136.925 765.104 136.256C759.503 131.939 752.301 130.352 746.739 126.075C737.177 118.727 745.428 108.454 738.685 100.595C731.248 91.8563 714.694 99.5581 705.604 99.9648C700.261 100.375 694.924 99.1094 690.335 96.3435C683.777 92.04 680.786 84.5351 675.552 79.0638C669.741 72.9103 661.556 69.8795 653.253 68.9742C640.398 67.5309 628.041 71.7032 615.213 70.2862C600.548 68.7118 577.671 38.797 564.409 45.1998C561.458 46.63 558.507 49.0048 555.306 48.27C552.971 47.7321 551.371 45.6459 549.757 43.8747C543.199 36.4747 531.892 30.3212 521.7 30.9247C519.496 31.0428 500.017 38.9282 502.771 40.1091C491.329 35.2465 478.883 33.2166 466.489 34.1917C464.783 34.2191 463.111 34.67 461.623 35.5038C458.553 37.5112 458.304 42.169 460.088 45.3573C461.872 48.5456 465.112 50.6055 468.221 52.5604C461.387 48.6243 453.516 45.4622 445.751 46.8399C437.985 48.2175 430.889 55.6831 432.463 63.4111C426.639 61.115 397.545 48.0076 392.783 54.3579C389.883 58.58 388.353 63.5934 388.402 68.7159C388.452 73.8384 390.078 78.8214 393.059 82.9869C395.183 85.8078 397.916 88.1129 401.055 89.7303C404.194 91.3478 407.657 92.236 411.187 92.3287C405.854 89.9651 400.208 88.3874 394.423 87.6447V87.6447Z" fill="#C8FFFF"/>
<path d="M1888.73 227.824C1811.34 196.65 1734.84 156.973 1665.83 108.847C1628.78 83.0524 1586.26 56.0767 1550.39 27.5003C1525.13 7.32093 1488.74 3.03054 1458.88 15.0227C1452.08 14.7603 1445.26 14.8259 1438.47 15.1539C1435.79 10.1703 1431.69 6.0917 1426.7 3.4322C1421.71 0.772708 1416.04 -0.348598 1410.41 0.209637C1398.47 1.71849 1388.49 10.5355 1383.36 21.5173L1380.95 21.8847L1373.88 22.9606C1354.79 8.86916 1319.71 8.37059 1311.02 34.0343C1310.51 35.5311 1310.11 37.0611 1309.81 38.6133C1305.44 42.139 1301.89 46.5706 1299.4 51.6026C1266.04 34.8215 1219.7 56.4441 1211.1 92.7879C1201.92 81.583 1182.61 82.8688 1172.97 93.6407C1163.33 104.413 1163.03 121.443 1169.71 134.314C1151.63 128.03 1118.55 143.315 1122.3 158.338C1110.02 168.191 1104.87 192.543 1114.97 203.866C1125.57 215.674 1143.48 217.695 1159.67 213.05C1175.04 208.668 1188.95 178.937 1192.04 178.176C1225.86 170.474 1258.48 157.997 1285.35 139.261C1306.23 124.697 1327.23 105.252 1354.44 106.459C1364.73 106.932 1374.75 110.501 1385.03 109.766C1411.26 107.876 1433.8 79.0507 1456.95 89.5865C1462.01 91.8826 1465.83 95.8449 1471.1 97.7605C1489.2 104.321 1505.86 84.0103 1525.59 82.8032C1534.93 82.2259 1543.74 86.0833 1551.94 89.862C1613.53 118.242 1670.9 156.291 1731.86 186.35C1798.76 219.335 1867.92 248.121 1939.85 268.117C1973.53 277.485 2008.86 285.357 2044.04 283.193C2074.59 281.329 2100.89 263.079 2126.02 246.626C2057.38 291.38 1956.85 255.272 1888.73 227.824Z" fill="#C8FFFF"/>
</g>
<defs>
<clipPath id="clip0">
<rect width="2179" height="674" fill="white"/>
</clipPath>
</defs>
</svg>

<svg width="2179" height="674" fill="none" xmlns="http://www.w3.org/2000/svg">
  <g clip-path="url(#a)">
    <path d="M102.315 230.75c58.935 2.231 108.374-17.778 156.2-42.366 44.074-22.672 85.774-48.152 130.792-69.722 54.607-26.176 115.025-46.184 180.297-45.07 34.643.591 70.335 4.855 101.777 16.743 26.142 9.866 48.848 23.748 69.521 39.518 43.655 33.248 82.849 73.777 139.988 93.668 58.188 20.258 133.19 25.322 193.43 7.177 56.86-17.057 99.24-51.393 142.46-83.499 52.08-38.679 110.83-73.974 180.89-90.046 74.94-17.188 150.47-9.185 216.51 23.472 60.05 29.64 108.6 70.103 162.66 105.594 51.81 34.048 113.29 64.75 179.36 78.723 55.62 11.73 121.51 8.043 169.82-18.303a190.993 190.993 0 0 0 52.76-42.196V674H0V200.442a217.794 217.794 0 0 0 102.315 30.308Z" fill="#65D5F5"/>
    <path d="M89.761 264.706a342.866 342.866 0 0 0 145.379 2.624c49.15-9.867 89.276-31.358 127.854-56.353 47.904-31.03 96.254-67.636 158.942-78.933 59.919-10.772 116.101 3.097 165.776 29.548 47.511 25.296 88.305 57.297 135.291 83.118 53.125 29.206 116.914 49.189 182.097 53.059 33.85 2.008 69.52 1.312 102.39-5.917a331.522 331.522 0 0 0 81.33-30.033c53.07-27.697 97.38-63.713 144.84-96.685 27.85-19.353 57.01-39.243 93.03-48.546a227.537 227.537 0 0 1 104.68-1.601c70.93 15.233 131.18 51.026 191.52 82.2 120.27 62.021 348.06 158.247 455.78 50.921v425.891H0V228.217a317.044 317.044 0 0 0 89.761 36.489Z" fill="#0AC0EF"/>
    <path d="M129.428 310.234c69.823 4.185 138.4-10.615 199.015-37.275a583.321 583.321 0 0 0 87.886-48.546c24.621-16.348 49.465-33.786 79.136-44.439 72.434-26.005 144.487-2.165 200.038 36.881 47.826 33.628 98.091 63.923 158.575 82.541 61.651 18.986 126.713 24.995 192.682 23.053 63.64-1.876 131.08-8.24 186.84-34.113 25.68-11.887 48.53-27.12 65.85-46.184 17.05-18.802 30.17-39.362 45.28-59.148 15.65-20.481 33.7-41.487 59.85-54.712 32.23-16.322 69.13-19.681 106.13-12.163 71.59 14.577 128.07 55.841 184.85 90.532 54.44 33.299 110.61 66.153 174.87 87.159 94.63 30.912 210.96 56.864 308.35 26.241V674H0V276.449a348.855 348.855 0 0 0 129.428 33.785Z" fill="#09B0EC" style="mix-blend-mode:multiply" opacity=".5"/>
    <path d="m2179 397.826-45.69 3.504c-150.71 2.283-323.38-85.651-327.04-87.527a6939.171 6939.171 0 0 1-89.61-57.075c-48.3-31.279-96.15-70.85-150.7-86.962-38.14-11.297-79.66-13.764-116.33 1.902-26.75 11.428-45.39 31.555-62.48 50.58-17.09 19.025-33.58 37.249-55 53.243-23.48 17.542-50.83 31.778-80.02 42.969-119.36 45.843-269.162 36.187-387.86-5.248-65.193-22.764-124.483-54.45-186.265-82.082-32.203-14.432-66.465-24.837-103.954-25.676-32.151-.709-63.173 7.281-91.06 19.208-52.299 22.37-88.424 60.354-138.374 85.283-47.419 23.617-102.905 37.328-159.06 39.545-53.191 2.1-104.938-7.964-149.537-30.439-11.648-5.852-24.03-12.517-36.033-19.943V674H2178.78v-9.093c0-49.149-4.97-266.7.22-267.081Z" fill="#0AC0EF"/>
    <path d="M2176.64 473.322c-43.89-5.668-92.37-22.725-113.81-28.865-96.2-27.448-190.87-62.979-283.16-101.448-61.23-25.559-116.74-64.041-182.91-76.466a290.827 290.827 0 0 0-147.71 10.759c-49.84 17.056-94.72 46.42-131.64 83.839-132.08 133.908-364.546 60.433-506.763-15.009-57.572-30.545-104.938-52.732-171.836-52.863-67.161-.144-161.894 12.36-220.502 49.858C232.517 461.907 63.33 411.773 0 385.204v43.298c208.328 80.193 420.238-38.679 420.238-38.679 238.065-102.799 428.934 3.319 428.934 3.319 74.375 43.114 157.318 72.032 243.288 78.868 51.16 4.08 111.88 8.174 160.88-10.379 50.71-19.195 85.84-71.139 130.77-100.306 70.07-45.475 172.52-74.931 255.47-52.482 71.99 19.471 138.81 67.571 208.56 95.203 74.61 29.573 151.28 53.794 228.73 74.786 5.25 1.404 54.48 11.809 100.02 21.688-.16-9.407-.21-18.499-.25-27.198Z" fill="#0AADEF"/>
    <path d="m45.412 669.971-40.939-3.122L0 663.713v-74.905c97.382 30.676 213.72 4.724 308.347-26.241 64.275-20.993 120.43-53.794 174.854-87.159 56.797-34.743 113.28-76.007 184.848-90.532 37.017-7.544 73.916-4.172 106.145 12.15 26.143 13.238 44.205 34.244 59.854 54.725 15.085 19.681 28.241 40.346 45.281 59.134 17.288 19.078 40.165 34.311 65.835 46.198 55.776 25.821 123.206 32.197 186.856 34.113 65.97 1.942 131.01-4.067 192.68-23.053 60.47-18.618 110.75-48.926 158.56-82.541 55.57-39.059 127.61-62.886 200.05-36.881 29.67 10.653 54.52 28.091 79.13 44.439a583.437 583.437 0 0 0 87.88 48.546c60.62 26.66 129.18 41.46 199.02 37.275a348.73 348.73 0 0 0 129.44-33.93v22.672c-12.01 7.414-24.4 14.092-36.04 19.944-44.67 22.462-96.38 32.538-149.53 30.439-56.16-2.23-111.66-15.954-159.08-39.558-49.93-24.85-86.06-62.874-138.37-85.283-27.87-11.927-58.9-19.917-91.05-19.209-37.49.84-71.76 11.284-103.95 25.677-61.78 27.632-121.09 59.318-186.27 82.069-118.69 41.434-268.48 51.091-387.847 5.248-29.134-11.192-56.483-25.428-80.016-42.97-21.407-15.994-38.04-34.389-54.987-53.243-16.948-18.854-35.797-39.086-62.53-50.527-36.728-15.666-78.205-13.212-116.35-1.902-54.529 16.151-102.381 55.683-150.678 86.962a7246.07 7246.07 0 0 1-89.617 57.075c-3.66 1.823-176.323 89.809-327.053 87.526Z" fill="#09B0EC" style="mix-blend-mode:multiply" opacity=".5"/>
    <path d="M394.423 87.645c-7.608-1.312-16.226-.683-21.867 4.592-5.64 5.274-5.771 16.295 1.181 19.681-9.785.538-17.118 11.414-15.19 20.992 1.928 9.578 11.517 16.637 21.316 17.057 9.798.42 19.269-5.012 25.277-12.753-3.437-.144-5.614 4.973-3.122 7.36 14.245 3.937 30.694-6.639 33.121-21.215 12.855 10.916 36.085 4.159 41.07-11.966 15.15 5.169 33.488-1.706 41.503-15.561 23.611 10.562 50.803 1.876 76.644.866 25.251-.997 50.357 5.655 73.457 16.02 45.149 20.337 82.494 54.319 123.473 82.134 40.978 27.816 89.709 50.278 138.623 42.55a279.746 279.746 0 0 1-91.257-32.171c-9.602-5.419-19.099-11.586-25.736-20.39-4.106-5.458-6.992-11.743-11.11-17.188a47.224 47.224 0 0 0-31.967-18.171c5.627.629-3.857-12.557-4.735-13.226-5.601-4.317-12.803-5.904-18.365-10.181-9.562-7.348-1.311-17.621-8.054-25.48-7.437-8.739-23.991-1.037-33.081-.63a25.758 25.758 0 0 1-15.269-3.621c-6.558-4.304-9.549-11.809-14.783-17.28-5.811-6.154-13.996-9.184-22.299-10.09-12.855-1.443-25.212 2.73-38.04 1.312-14.665-1.574-37.542-31.489-50.804-25.086-2.951 1.43-5.902 3.805-9.103 3.07-2.335-.538-3.935-2.624-5.549-4.395-6.558-7.4-17.865-13.554-28.057-12.95-2.204.118-21.683 8.003-18.929 9.184a77.268 77.268 0 0 0-36.282-5.917 10.292 10.292 0 0 0-4.866 1.312c-3.07 2.007-3.319 6.665-1.535 9.853 1.784 3.189 5.024 5.248 8.133 7.203-6.834-3.936-14.705-7.098-22.47-5.72-7.766 1.377-14.862 8.843-13.288 16.571-5.824-2.296-34.918-15.403-39.68-9.053a24.94 24.94 0 0 0-4.381 14.358 24.94 24.94 0 0 0 4.657 14.27 23.46 23.46 0 0 0 18.128 9.343 60.331 60.331 0 0 0-16.764-4.684ZM1888.73 227.824c-77.39-31.174-153.89-70.851-222.9-118.977-37.05-25.795-79.57-52.77-115.44-81.347-25.26-20.18-61.65-24.47-91.51-12.477-6.8-.263-13.62-.197-20.41.13a28.683 28.683 0 0 0-11.77-11.72A28.632 28.632 0 0 0 1410.41.21c-11.94 1.508-21.92 10.326-27.05 21.307l-2.41.368-7.07 1.076c-19.09-14.092-54.17-14.59-62.86 11.073a34.468 34.468 0 0 0-1.21 4.58 38.792 38.792 0 0 0-10.41 12.989c-33.36-16.782-79.7 4.841-88.3 41.185-9.18-11.205-28.49-9.92-38.13.853-9.64 10.772-9.94 27.802-3.26 40.673-18.08-6.284-51.16 9.001-47.41 24.024-12.28 9.853-17.43 34.205-7.33 45.528 10.6 11.808 28.51 13.829 44.7 9.184 15.37-4.382 29.28-34.113 32.37-34.874 33.82-7.702 66.44-20.179 93.31-38.915 20.88-14.564 41.88-34.009 69.09-32.802 10.29.473 20.31 4.042 30.59 3.307 26.23-1.89 48.77-30.715 71.92-20.18 5.06 2.297 8.88 6.259 14.15 8.174 18.1 6.561 34.76-13.75 54.49-14.957 9.34-.577 18.15 3.28 26.35 7.059 61.59 28.38 118.96 66.429 179.92 96.488 66.9 32.985 136.06 61.771 207.99 81.767 33.68 9.368 69.01 17.24 104.19 15.076 30.55-1.864 56.85-20.114 81.98-36.567-68.64 44.754-169.17 8.646-237.29-18.802Z" fill="#C8FFFF"/>
  </g>
  <defs>
    <clipPath id="a">
      <path fill="#fff" d="M0 0h2179v674H0z"/>
    </clipPath>
  </defs>
</svg>
